app/img/step-two/promo/turbo1.svg

<svg xmlns="http://www.w3.org/2000/svg" width="120" height="119.976"><defs><clipPath id="a"><path fill="none" d="M0 0h120v119.976H0z"/></clipPath></defs><g clip-path="url(#a)"><path d="M118.155 5.249a4.686 4.686 0 0 0-3.427-3.427A78.175 78.175 0 0 0 97.631 0c-10.925 0-26.27 2.323-37.336 13.388a123.749 123.749 0 0 0-11.815 14 66.153 66.153 0 0 0-17.585 4.925C9.93 41.15.801 60.787.421 61.619a4.685 4.685 0 0 0 3.286 6.522l22.818 4.876L46.96 93.452l4.876 22.818a4.686 4.686 0 0 0 6.522 3.286c.832-.379 20.469-9.508 29.3-30.474a66.187 66.187 0 0 0 4.933-17.591 123.72 123.72 0 0 0 13.996-11.81c19.824-19.821 11.914-53.028 11.568-54.432zm-91.539 58.2l-14.659-3.127c3.744-5.65 11.093-14.531 22.578-19.371a67.952 67.952 0 0 1 6.231-2.285c-6.528 10.2-11.621 19.809-14.151 24.788zm52.411 21.993C74.218 96.854 65.315 104.228 59.652 108l-3.129-14.638c4.98-2.531 14.594-7.626 24.8-14.157a69.875 69.875 0 0 1-2.296 6.237zm15.09-34.4a17.806 17.806 0 1 1 0-25.181 17.688 17.688 0 0 1 0 25.179zm-6.626-18.561a8.434 8.434 0 1 1-5.964-2.47 8.443 8.443 0 0 1 5.964 2.47z" fill="#6566e7"/></g></svg>

<svg xmlns="http://www.w3.org/2000/svg" xmlns:xlink="http://www.w3.org/1999/xlink" width="120" height="119.976" viewBox="0 0 120 119.976"><defs><clipPath id="a"><rect width="120" height="119.976" fill="none"/></clipPath></defs><g clip-path="url(#a)"><g transform="translate(-181 -1359)"><path d="M118.154,5.268a4.686,4.686,0,0,0-3.427-3.427A78.175,78.175,0,0,0,97.63.019c-10.925,0-26.27,2.323-37.336,13.388a123.749,123.749,0,0,0-11.815,14,66.153,66.153,0,0,0-17.585,4.925C9.929,41.169.8,60.806.42,61.638A4.685,4.685,0,0,0,3.706,68.16l22.818,4.876L46.959,93.471l4.876,22.818a4.686,4.686,0,0,0,6.522,3.286c.832-.379,20.469-9.508,29.3-30.474a66.187,66.187,0,0,0,4.933-17.591A123.72,123.72,0,0,0,106.586,59.7C126.41,39.879,118.5,6.672,118.154,5.268Zm-91.539,58.2L11.956,60.341C15.7,54.691,23.049,45.81,34.534,40.97c2.226-.938,4.3-1.685,6.231-2.285C34.237,48.885,29.144,58.494,26.614,63.473ZM79.026,85.461c-4.809,11.412-13.712,18.786-19.375,22.558L56.522,93.381c4.98-2.531,14.594-7.626,24.8-14.157C80.715,81.16,79.964,83.235,79.026,85.461Zm15.09-34.4a17.806,17.806,0,1,1,0-25.181A17.688,17.688,0,0,1,94.116,51.059ZM87.49,32.5a8.434,8.434,0,1,1-5.964-2.47A8.443,8.443,0,0,1,87.49,32.5Z" transform="translate(181.001 1358.981)" fill="#6566e7"/></g></g></svg>
